icons/Qiwi.svg

<svg width="52" height="35" viewBox="0 0 52 35" fill="none" xmlns="http://www.w3.org/2000/svg">
<rect x="0.5" y="0.5" width="51" height="34" rx="5.5" fill="white" stroke="#D9D9D9"/>
<path fill-rule="evenodd" clip-rule="evenodd" d="M14.8574 16.869C14.8574 22.5157 19.5489 27.1208 25.3575 27.1208C26.0704 27.1208 26.7833 27.0595 27.6025 26.9891C28.516 26.9106 29.5617 26.8207 30.8868 26.7918C32.8974 26.7918 35.0756 27.5045 37.4772 29.5877C37.7006 29.807 38.0357 29.5329 37.8123 29.2588C35.4107 26.3533 33.2325 25.805 31.0543 25.3116C28.3734 24.7086 26.9772 23.2832 26.0277 21.6386C25.8601 21.3096 25.7484 21.3644 25.7484 21.803C25.6926 22.4609 25.7484 23.0639 25.8601 23.667H25.525C21.7271 23.667 18.5995 20.5969 18.5995 16.869C18.5995 13.1411 21.7271 10.0711 25.525 10.0711C29.3229 10.0711 32.4506 13.1411 32.4506 16.869C32.4506 17.0883 32.4506 17.3624 32.3947 17.6365C31.8362 17.5269 30.8868 17.5269 30.1607 17.5817C29.8814 17.5817 29.8814 17.6914 30.1048 17.7462C32.3389 18.1848 33.9027 19.5553 34.2937 22.0771C34.2937 22.1868 34.3495 22.1868 34.4054 22.132C35.299 20.5969 35.8575 18.7878 35.8575 16.869C35.8575 11.1675 31.166 6.5625 25.3575 6.5625C19.5489 6.5625 14.8574 11.2224 14.8574 16.869ZM32.9532 21.0903C33.3441 21.2548 33.5117 21.803 33.5117 22.0771C33.5675 22.5157 33.4558 22.735 33.2883 22.735C33.1207 22.735 32.8973 22.5705 32.6739 22.1868C32.4505 21.803 32.3388 21.4193 32.4505 21.2C32.6181 21.0903 32.7856 21.0355 32.9532 21.0903ZM30.6633 22.7898C30.8867 22.7898 31.166 22.8995 31.4452 23.1188C31.892 23.5025 32.0596 23.9411 31.8362 24.27C31.7245 24.4345 31.4452 24.5441 31.2218 24.5441C30.9425 24.5441 30.6633 24.4345 30.4957 24.27C30.0489 23.8863 29.9372 23.3381 30.2165 23.0091C30.2723 22.8995 30.4399 22.7898 30.6633 22.7898Z" fill="#F28A1A"/>
</svg>

<svg width="52" height="35" fill="none" xmlns="http://www.w3.org/2000/svg"><rect x=".5" y=".5" width="51" height="34" rx="5.5" fill="#fff" stroke="#D9D9D9"/><path fill-rule="evenodd" clip-rule="evenodd" d="M14.857 16.869c0 5.647 4.692 10.252 10.5 10.252.713 0 1.426-.061 2.245-.132.914-.078 1.96-.168 3.285-.197 2.01 0 4.189.712 6.59 2.796.224.219.559-.055.335-.33-2.401-2.905-4.58-3.453-6.758-3.946-2.68-.603-4.077-2.029-5.026-3.673-.168-.33-.28-.275-.28.164-.055.658 0 1.26.112 1.864h-.335c-3.798 0-6.925-3.07-6.925-6.798s3.127-6.798 6.925-6.798 6.926 3.07 6.926 6.798c0 .22 0 .493-.056.768-.559-.11-1.508-.11-2.234-.055-.28 0-.28.11-.056.164 2.234.439 3.798 1.81 4.189 4.331 0 .11.056.11.111.055.894-1.535 1.453-3.344 1.453-5.263 0-5.701-4.692-10.306-10.5-10.306-5.81 0-10.5 4.66-10.5 10.306Zm18.096 4.221c.391.165.559.713.559.987.056.439-.056.658-.224.658-.167 0-.39-.165-.614-.548-.224-.384-.335-.768-.224-.987.168-.11.336-.165.503-.11Zm-2.29 1.7c.224 0 .503.11.782.329.447.384.615.822.391 1.151-.111.165-.39.274-.614.274-.28 0-.559-.11-.726-.274-.447-.384-.559-.932-.28-1.26.056-.11.224-.22.447-.22Z" fill="#F28A1A"/></svg>
